P3
80 80
255
135 206 235
135 206 235
135 206 235
135 206 235
135 206 235
135 206 235
135 206 235
135 206 235
135 206 235
135 206 235
135 206 235
135 206 235
135 206 235
135 206 235
135 206 235
135 206 235
135 206 235
135 206 235
135 206 235
135 206 235
135 206 235
135 206 235
135 206 235
135 206 235
135 206 235
135 206 235
135 206 235
135 206 235
135 206 235
135 206 235
135 206 235
40 40 40
40 40 40
40 40 40
40 40 40
40 40 40
40 40 40
40 40 40
40 40 40
40 40 40
40 40 40
40 40 40
40 40 40
40 40 40
40 40 40
40 40 40
40 40 40
40 40 40
40 40 40
40 40 40
135 206 235
135 206 235
135 206 235
135 206 235
135 206 235
135 206 235
135 206 235
135 206 235
135 206 235
135 206 235
135 206 235
135 206 235
135 206 235
135 206 235
135 206 235
135 206 235
135 206 235
135 206 235
135 206 235
135 206 235
135 206 235
135 206 235
135 206 235
135 206 235
135 206 235
135 206 235
135 206 235
135 206 235
135 206 235
135 206 235
135 206 235
135 206 235
135 206 235
135 206 235
135 206 235
135 206 235
135 206 235
135 206 235
135 206 235
135 206 235
135 206 235
135 206 235
135 206 235
135 206 235
135 206 235
135 206 235
135 206 235
135 206 235
135 206 235
135 206 235
135 206 235
135 206 235
135 206 235
135 206 235
135 206 235
135 206 235
135 206 235
135 206 235
135 206 235
135 206 235
135 206 235
40 40 40
40 40 40
40 40 40
40 40 40
40 40 40
40 40 40
40 40 40
40 40 40
40 40 40
40 40 40
40 40 40
40 40 40
40 40 40
40 40 40
40 40 40
40 40 40
40 40 40
40 40 40
40 40 40
135 206 235
135 206 235
135 206 235
135 206 235
135 206 235
135 206 235
135 206 235
135 206 235
135 206 235
135 206 235
135 206 235
135 206 235
135 206 235
135 206 235
135 206 235
135 206 235
135 206 235
135 206 235
135 206 235
135 206 235
135 206 235
135 206 235
135 206 235
135 206 235
135 206 235
135 206 235
135 206 235
135 206 235
135 206 235
135 206 235
135 206 235
135 206 235
135 206 235
135 206 235
135 206 235
135 206 235
135 206 235
135 206 235
135 206 235
135 206 235
135 206 235
135 206 235
135 206 235
135 206 235
135 206 235
135 206 235
135 206 235
135 206 235
135 206 235
135 206 235
135 206 235
135 206 235
135 206 235
135 206 235
135 206 235
135 206 235
135 206 235
135 206 235
135 206 235
135 206 235
135 206 235
40 40 40
40 40 40
40 40 40
40 40 40
40 40 40
40 40 40
40 40 40
40 40 40
40 40 40
40 40 40
40 40 40
40 40 40
40 40 40
40 40 40
40 40 40
40 40 40
40 40 40
40 40 40
40 40 40
135 206 235
135 206 235
135 206 235
135 206 235
135 206 235
135 206 235
135 206 235
135 206 235
135 206 235
135 206 235
135 206 235
135 206 235
135 206 235
135 206 235
135 206 235
135 206 235
135 206 235
135 206 235
135 206 235
135 206 235
135 206 235
135 206 235
135 206 235
135 206 235
135 206 235
135 206 235
135 206 235
135 206 235
135 206 235
135 206 235
135 206 235
135 206 235
135 206 235
135 206 235
135 206 235
135 206 235
135 206 235
135 206 235
135 206 235
135 206 235
135 206 235
135 206 235
135 206 235
135 206 235
135 206 235
135 206 235
135 206 235
135 206 235
135 206 235
135 206 235
135 206 235
135 206 235
135 206 235
135 206 235
135 206 235
135 206 235
135 206 235
135 206 235
135 206 235
135 206 235
135 206 235
40 40 40
40 40 40
40 40 40
40 40 40
40 40 40
40 40 40
40 40 40
40 40 40
40 40 40
40 40 40
40 40 40
40 40 40
40 40 40
40 40 40
40 40 40
40 40 40
40 40 40
40 40 40
40 40 40
135 206 235
135 206 235
135 206 235
135 206 235
135 206 235
135 206 235
135 206 235
135 206 235
135 206 235
135 206 235
135 206 235
135 206 235
135 206 235
135 206 235
135 206 235
135 206 235
135 206 235
135 206 235
135 206 235
135 206 235
135 206 235
135 206 235
135 206 235
135 206 235
135 206 235
135 206 235
135 206 235
135 206 235
135 206 235
135 206 235
135 206 235
135 206 235
135 206 235
135 206 235
135 206 235
135 206 235
135 206 235
135 206 235
135 206 235
135 206 235
135 206 235
135 206 235
135 206 235
135 206 235
135 206 235
135 206 235
135 206 235
135 206 235
135 206 235
135 206 235
135 206 235
135 206 235
135 206 235
135 206 235
135 206 235
135 206 235
135 206 235
135 206 235
135 206 235
135 206 235
135 206 235
40 40 40
40 40 40
40 40 40
40 40 40
40 40 40
40 40 40
40 40 40
40 40 40
40 40 40
40 40 40
40 40 40
40 40 40
40 40 40
40 40 40
40 40 40
40 40 40
40 40 40
40 40 40
40 40 40
135 206 235
135 206 235
135 206 235
135 206 235
135 206 235
135 206 235
135 206 235
135 206 235
135 206 235
135 206 235
135 206 235
135 206 235
135 206 235
135 206 235
135 206 235
135 206 235
135 206 235
135 206 235
135 206 235
135 206 235
135 206 235
135 206 235
135 206 235
135 206 235
135 206 235
135 206 235
135 206 235
135 206 235
135 206 235
135 206 235
135 206 235
135 206 235
135 206 235
135 206 235
135 206 235
135 206 235
135 206 235
135 206 235
135 206 235
135 206 235
135 206 235
135 206 235
135 206 235
135 206 235
135 206 235
135 206 235
135 206 235
135 206 235
135 206 235
135 206 235
135 206 235
135 206 235
135 206 235
135 206 235
135 206 235
135 206 235
135 206 235
135 206 235
135 206 235
135 206 235
135 206 235
40 40 40
40 40 40
40 40 40
40 40 40
40 40 40
40 40 40
40 40 40
40 40 40
40 40 40
40 40 40
40 40 40
40 40 40
40 40 40
40 40 40
40 40 40
40 40 40
40 40 40
40 40 40
40 40 40
135 206 235
135 206 235
135 206 235
135 206 235
135 206 235
135 206 235
135 206 235
135 206 235
135 206 235
135 206 235
135 206 235
135 206 235
135 206 235
135 206 235
135 206 235
135 206 235
135 206 235
135 206 235
135 206 235
135 206 235
135 206 235
135 206 235
135 206 235
135 206 235
135 206 235
135 206 235
135 206 235
135 206 235
135 206 235
135 206 235
135 206 235
135 206 235
135 206 235
135 206 235
135 206 235
135 206 235
135 206 235
135 206 235
135 206 235
135 206 235
135 206 235
135 206 235
135 206 235
135 206 235
135 206 235
135 206 235
135 206 235
135 206 235
135 206 235
135 206 235
135 206 235
135 206 235
135 206 235
135 206 235
135 206 235
135 206 235
135 206 235
135 206 235
135 206 235
135 206 235
135 206 235
40 40 40
40 40 40
40 40 40
40 40 40
40 40 40
40 40 40
40 40 40
40 40 40
40 40 40
40 40 40
40 40 40
40 40 40
40 40 40
40 40 40
40 40 40
40 40 40
40 40 40
40 40 40
40 40 40
135 206 235
135 206 235
135 206 235
135 206 235
135 206 235
135 206 235
135 206 235
135 206 235
135 206 235
135 206 235
135 206 235
135 206 235
135 206 235
135 206 235
135 206 235
135 206 235
135 206 235
135 206 235
135 206 235
135 206 235
135 206 235
135 206 235
135 206 235
135 206 235
135 206 235
135 206 235
135 206 235
135 206 235
135 206 235
135 206 235
135 206 235
135 206 235
135 206 235
135 206 235
135 206 235
135 206 235
135 206 235
135 206 235
135 206 235
135 206 235
135 206 235
135 206 235
135 206 235
135 206 235
135 206 235
135 206 235
135 206 235
135 206 235
135 206 235
135 206 235
135 206 235
135 206 235
135 206 235
135 206 235
135 206 235
135 206 235
135 206 235
135 206 235
135 206 235
135 206 235
135 206 235
40 40 40
40 40 40
40 40 40
40 40 40
40 40 40
40 40 40
40 40 40
40 40 40
40 40 40
40 40 40
40 40 40
40 40 40
40 40 40
40 40 40
40 40 40
40 40 40
40 40 40
40 40 40
40 40 40
135 206 235
135 206 235
135 206 235
135 206 235
135 206 235
135 206 235
135 206 235
135 206 235
135 206 235
135 206 235
135 206 235
135 206 235
135 206 235
135 206 235
135 206 235
135 206 235
135 206 235
135 206 235
135 206 235
135 206 235
135 206 235
135 206 235
135 206 235
135 206 235
135 206 235
135 206 235
135 206 235
135 206 235
135 206 235
135 206 235
135 206 235
135 206 235
135 206 235
135 206 235
135 206 235
135 206 235
135 206 235
135 206 235
135 206 235
135 206 235
135 206 235
135 206 235
135 206 235
135 206 235
135 206 235
135 206 235
135 206 235
135 206 235
135 206 235
135 206 235
135 206 235
135 206 235
135 206 235
135 206 235
135 206 235
135 206 235
135 206 235
135 206 235
135 206 235
135 206 235
135 206 235
40 40 40
40 40 40
40 40 40
40 40 40
40 40 40
40 40 40
40 40 40
40 40 40
40 40 40
40 40 40
40 40 40
40 40 40
40 40 40
40 40 40
40 40 40
40 40 40
40 40 40
40 40 40
40 40 40
135 206 235
135 206 235
135 206 235
135 206 235
135 206 235
135 206 235
135 206 235
135 206 235
135 206 235
135 206 235
135 206 235
135 206 235
135 206 235
135 206 235
135 206 235
135 206 235
135 206 235
135 206 235
135 206 235
135 206 235
135 206 235
135 206 235
135 206 235
135 206 235
135 206 235
135 206 235
135 206 235
135 206 235
135 206 235
135 206 235
135 206 235
135 206 235
135 206 235
135 206 235
135 206 235
135 206 235
135 206 235
135 206 235
135 206 235
135 206 235
135 206 235
135 206 235
135 206 235
135 206 235
135 206 235
135 206 235
135 206 235
135 206 235
135 206 235
135 206 235
135 206 235
135 206 235
135 206 235
135 206 235
135 206 235
135 206 235
135 206 235
135 206 235
135 206 235
135 206 235
135 206 235
40 40 40
40 40 40
40 40 40
40 40 40
40 40 40
40 40 40
40 40 40
40 40 40
40 40 40
40 40 40
40 40 40
40 40 40
40 40 40
40 40 40
40 40 40
40 40 40
40 40 40
40 40 40
40 40 40
135 206 235
135 206 235
135 206 235
135 206 235
135 206 235
135 206 235
135 206 235
135 206 235
135 206 235
135 206 235
135 206 235
135 206 235
135 206 235
135 206 235
135 206 235
135 206 235
135 206 235
135 206 235
135 206 235
135 206 235
135 206 235
135 206 235
135 206 235
135 206 235
135 206 235
135 206 235
135 206 235
135 206 235
135 206 235
135 206 235
135 206 235
135 206 235
135 206 235
135 206 235
135 206 235
135 206 235
135 206 235
135 206 235
135 206 235
135 206 235
135 206 235
135 206 235
135 206 235
135 206 235
135 206 235
135 206 235
135 206 235
135 206 235
135 206 235
135 206 235
135 206 235
135 206 235
135 206 235
135 206 235
135 206 235
135 206 235
135 206 235
135 206 235
135 206 235
135 206 235
135 206 235
40 40 40
40 40 40
40 40 40
40 40 40
40 40 40
40 40 40
40 40 40
40 40 40
40 40 40
40 40 40
40 40 40
40 40 40
40 40 40
40 40 40
40 40 40
40 40 40
40 40 40
40 40 40
40 40 40
135 206 235
135 206 235
135 206 235
135 206 235
135 206 235
135 206 235
135 206 235
135 206 235
135 206 235
135 206 235
135 206 235
135 206 235
135 206 235
135 206 235
135 206 235
135 206 235
135 206 235
135 206 235
135 206 235
135 206 235
135 206 235
135 206 235
135 206 235
135 206 235
135 206 235
135 206 235
135 206 235
135 206 235
135 206 235
135 206 235
135 206 235
135 206 235
135 206 235
135 206 235
135 206 235
135 206 235
135 206 235
135 206 235
135 206 235
135 206 235
135 206 235
135 206 235
135 206 235
135 206 235
135 206 235
135 206 235
135 206 235
135 206 235
135 206 235
135 206 235
135 206 235
135 206 235
135 206 235
135 206 235
135 206 235
135 206 235
135 206 235
135 206 235
135 206 235
135 206 235
135 206 235
40 40 40
40 40 40
40 40 40
40 40 40
40 40 40
40 40 40
40 40 40
40 40 40
40 40 40
40 40 40
40 40 40
40 40 40
40 40 40
40 40 40
40 40 40
40 40 40
40 40 40
40 40 40
40 40 40
135 206 235
135 206 235
135 206 235
135 206 235
135 206 235
135 206 235
135 206 235
135 206 235
135 206 235
135 206 235
135 206 235
135 206 235
135 206 235
135 206 235
135 206 235
135 206 235
135 206 235
135 206 235
135 206 235
135 206 235
135 206 235
135 206 235
135 206 235
135 206 235
135 206 235
135 206 235
135 206 235
135 206 235
135 206 235
135 206 235
135 206 235
135 206 235
135 206 235
135 206 235
135 206 235
135 206 235
135 206 235
135 206 235
135 206 235
135 206 235
135 206 235
135 206 235
135 206 235
135 206 235
135 206 235
135 206 235
135 206 235
135 206 235
135 206 235
135 206 235
135 206 235
135 206 235
135 206 235
135 206 235
135 206 235
135 206 235
135 206 235
135 206 235
135 206 235
135 206 235
135 206 235
40 40 40
40 40 40
40 40 40
40 40 40
40 40 40
40 40 40
40 40 40
40 40 40
40 40 40
40 40 40
40 40 40
40 40 40
40 40 40
40 40 40
40 40 40
40 40 40
40 40 40
40 40 40
40 40 40
135 206 235
135 206 235
135 206 235
135 206 235
135 206 235
135 206 235
135 206 235
135 206 235
135 206 235
135 206 235
135 206 235
135 206 235
135 206 235
135 206 235
135 206 235
135 206 235
135 206 235
135 206 235
135 206 235
135 206 235
135 206 235
135 206 235
135 206 235
135 206 235
135 206 235
135 206 235
135 206 235
135 206 235
135 206 235
135 206 235
135 206 235
135 206 235
135 206 235
135 206 235
135 206 235
135 206 235
135 206 235
135 206 235
135 206 235
135 206 235
135 206 235
135 206 235
135 206 235
135 206 235
135 206 235
135 206 235
135 206 235
135 206 235
135 206 235
135 206 235
135 206 235
135 206 235
135 206 235
135 206 235
135 206 235
135 206 235
135 206 235
135 206 235
135 206 235
135 206 235
135 206 235
40 40 40
40 40 40
40 40 40
40 40 40
40 40 40
40 40 40
40 40 40
40 40 40
40 40 40
40 40 40
40 40 40
40 40 40
40 40 40
40 40 40
40 40 40
40 40 40
40 40 40
40 40 40
40 40 40
135 206 235
135 206 235
135 206 235
135 206 235
135 206 235
135 206 235
135 206 235
135 206 235
135 206 235
135 206 235
135 206 235
135 206 235
135 206 235
135 206 235
135 206 235
135 206 235
135 206 235
135 206 235
135 206 235
135 206 235
135 206 235
135 206 235
135 206 235
135 206 235
135 206 235
135 206 235
135 206 235
135 206 235
135 206 235
135 206 235
135 206 235
135 206 235
135 206 235
135 206 235
135 206 235
135 206 235
135 206 235
135 206 235
135 206 235
135 206 235
135 206 235
135 206 235
135 206 235
135 206 235
135 206 235
135 206 235
135 206 235
135 206 235
135 206 235
135 206 235
135 206 235
135 206 235
135 206 235
135 206 235
135 206 235
135 206 235
135 206 235
135 206 235
135 206 235
135 206 235
135 206 235
40 40 40
40 40 40
40 40 40
40 40 40
40 40 40
40 40 40
40 40 40
40 40 40
40 40 40
40 40 40
40 40 40
40 40 40
40 40 40
40 40 40
40 40 40
40 40 40
40 40 40
40 40 40
40 40 40
135 206 235
135 206 235
135 206 235
135 206 235
135 206 235
135 206 235
135 206 235
135 206 235
135 206 235
135 206 235
135 206 235
135 206 235
135 206 235
135 206 235
135 206 235
135 206 235
135 206 235
135 206 235
135 206 235
135 206 235
135 206 235
135 206 235
135 206 235
135 206 235
135 206 235
135 206 235
135 206 235
135 206 235
135 206 235
135 206 235
135 206 235
135 206 235
135 206 235
135 206 235
135 206 235
135 206 235
135 206 235
135 206 235
135 206 235
135 206 235
135 206 235
135 206 235
135 206 235
135 206 235
135 206 235
135 206 235
135 206 235
135 206 235
135 206 235
135 206 235
135 206 235
135 206 235
135 206 235
135 206 235
135 206 235
135 206 235
135 206 235
135 206 235
135 206 235
135 206 235
135 206 235
40 40 40
40 40 40
40 40 40
40 40 40
40 40 40
40 40 40
40 40 40
40 40 40
40 40 40
40 40 40
40 40 40
40 40 40
40 40 40
40 40 40
40 40 40
40 40 40
40 40 40
40 40 40
40 40 40
135 206 235
135 206 235
135 206 235
135 206 235
135 206 235
135 206 235
135 206 235
135 206 235
135 206 235
135 206 235
135 206 235
135 206 235
135 206 235
135 206 235
135 206 235
135 206 235
135 206 235
135 206 235
135 206 235
135 206 235
135 206 235
135 206 235
135 206 235
135 206 235
135 206 235
135 206 235
135 206 235
135 206 235
135 206 235
135 206 235
135 206 235
135 206 235
135 206 235
135 206 235
135 206 235
135 206 235
135 206 235
135 206 235
135 206 235
135 206 235
135 206 235
135 206 235
135 206 235
135 206 235
135 206 235
135 206 235
135 206 235
135 206 235
135 206 235
135 206 235
135 206 235
135 206 235
135 206 235
135 206 235
135 206 235
135 206 235
135 206 235
135 206 235
135 206 235
135 206 235
135 206 235
40 40 40
40 40 40
40 40 40
40 40 40
40 40 40
40 40 40
40 40 40
40 40 40
40 40 40
40 40 40
40 40 40
40 40 40
40 40 40
40 40 40
40 40 40
40 40 40
40 40 40
40 40 40
40 40 40
135 206 235
135 206 235
135 206 235
135 206 235
135 206 235
135 206 235
135 206 235
135 206 235
135 206 235
135 206 235
135 206 235
135 206 235
135 206 235
135 206 235
135 206 235
135 206 235
135 206 235
135 206 235
135 206 235
135 206 235
135 206 235
135 206 235
135 206 235
135 206 235
135 206 235
135 206 235
135 206 235
135 206 235
135 206 235
135 206 235
135 206 235
135 206 235
135 206 235
135 206 235
135 206 235
135 206 235
135 206 235
135 206 235
135 206 235
135 206 235
135 206 235
135 206 235
135 206 235
135 206 235
135 206 235
135 206 235
135 206 235
135 206 235
135 206 235
135 206 235
135 206 235
135 206 235
135 206 235
135 206 235
135 206 235
135 206 235
135 206 235
135 206 235
135 206 235
135 206 235
135 206 235
40 40 40
40 40 40
40 40 40
40 40 40
40 40 40
40 40 40
40 40 40
40 40 40
40 40 40
40 40 40
40 40 40
40 40 40
40 40 40
40 40 40
40 40 40
40 40 40
40 40 40
40 40 40
40 40 40
135 206 235
135 206 235
135 206 235
135 206 235
135 206 235
135 206 235
135 206 235
135 206 235
135 206 235
135 206 235
135 206 235
135 206 235
135 206 235
135 206 235
135 206 235
135 206 235
135 206 235
135 206 235
135 206 235
135 206 235
135 206 235
135 206 235
135 206 235
135 206 235
135 206 235
135 206 235
135 206 235
135 206 235
135 206 235
135 206 235
135 206 235
135 206 235
135 206 235
135 206 235
135 206 235
135 206 235
135 206 235
135 206 235
135 206 235
135 206 235
135 206 235
135 206 235
135 206 235
135 206 235
135 206 235
135 206 235
135 206 235
135 206 235
135 206 235
135 206 235
135 206 235
135 206 235
135 206 235
135 206 235
135 206 235
135 206 235
135 206 235
135 206 235
135 206 235
135 206 235
135 206 235
40 40 40
40 40 40
40 40 40
40 40 40
40 40 40
40 40 40
40 40 40
40 40 40
40 40 40
40 40 40
40 40 40
40 40 40
40 40 40
40 40 40
40 40 40
40 40 40
40 40 40
40 40 40
40 40 40
135 206 235
135 206 235
135 206 235
135 206 235
135 206 235
135 206 235
135 206 235
135 206 235
135 206 235
135 206 235
135 206 235
135 206 235
135 206 235
135 206 235
135 206 235
135 206 235
135 206 235
135 206 235
135 206 235
135 206 235
135 206 235
135 206 235
135 206 235
135 206 235
135 206 235
135 206 235
135 206 235
135 206 235
135 206 235
135 206 235
135 206 235
135 206 235
135 206 235
135 206 235
135 206 235
135 206 235
135 206 235
135 206 235
135 206 235
135 206 235
135 206 235
135 206 235
135 206 235
135 206 235
135 206 235
135 206 235
135 206 235
135 206 235
135 206 235
135 206 235
135 206 235
135 206 235
135 206 235
135 206 235
135 206 235
135 206 235
135 206 235
135 206 235
135 206 235
135 206 235
135 206 235
40 40 40
40 40 40
40 40 40
40 40 40
40 40 40
40 40 40
40 40 40
40 40 40
40 40 40
40 40 40
40 40 40
40 40 40
40 40 40
40 40 40
40 40 40
40 40 40
40 40 40
40 40 40
40 40 40
135 206 235
135 206 235
135 206 235
135 206 235
135 206 235
135 206 235
135 206 235
135 206 235
135 206 235
135 206 235
135 206 235
135 206 235
135 206 235
135 206 235
135 206 235
135 206 235
135 206 235
135 206 235
135 206 235
135 206 235
135 206 235
135 206 235
135 206 235
135 206 235
135 206 235
135 206 235
135 206 235
135 206 235
135 206 235
135 206 235
135 206 235
135 206 235
135 206 235
135 206 235
135 206 235
135 206 235
135 206 235
135 206 235
135 206 235
135 206 235
135 206 235
135 206 235
135 206 235
135 206 235
135 206 235
135 206 235
135 206 235
135 206 235
135 206 235
135 206 235
135 206 235
135 206 235
135 206 235
135 206 235
135 206 235
135 206 235
135 206 235
135 206 235
135 206 235
135 206 235
135 206 235
40 40 40
40 40 40
40 40 40
40 40 40
40 40 40
40 40 40
40 40 40
40 40 40
40 40 40
40 40 40
40 40 40
40 40 40
40 40 40
40 40 40
40 40 40
40 40 40
40 40 40
40 40 40
40 40 40
135 206 235
135 206 235
135 206 235
135 206 235
135 206 235
135 206 235
135 206 235
135 206 235
135 206 235
135 206 235
135 206 235
135 206 235
135 206 235
135 206 235
135 206 235
135 206 235
135 206 235
135 206 235
135 206 235
135 206 235
135 206 235
135 206 235
135 206 235
135 206 235
135 206 235
135 206 235
135 206 235
135 206 235
135 206 235
135 206 235
135 206 235
135 206 235
135 206 235
135 206 235
135 206 235
135 206 235
135 206 235
135 206 235
135 206 235
135 206 235
135 206 235
135 206 235
135 206 235
135 206 235
135 206 235
135 206 235
135 206 235
135 206 235
135 206 235
135 206 235
135 206 235
135 206 235
135 206 235
135 206 235
135 206 235
135 206 235
135 206 235
135 206 235
135 206 235
135 206 235
40 40 40
40 40 40
40 40 40
40 40 40
40 40 40
40 40 40
40 40 40
40 40 40
40 40 40
40 40 40
40 40 40
40 40 40
40 40 40
40 40 40
40 40 40
40 40 40
40 40 40
40 40 40
40 40 40
40 40 40
40 40 40
135 206 235
135 206 235
135 206 235
135 206 235
135 206 235
135 206 235
135 206 235
135 206 235
135 206 235
135 206 235
135 206 235
135 206 235
135 206 235
135 206 235
135 206 235
135 206 235
135 206 235
135 206 235
135 206 235
135 206 235
135 206 235
135 206 235
135 206 235
135 206 235
135 206 235
135 206 235
135 206 235
135 206 235
135 206 235
135 206 235
135 206 235
135 206 235
135 206 235
135 206 235
135 206 235
135 206 235
135 206 235
135 206 235
135 206 235
135 206 235
135 206 235
135 206 235
135 206 235
135 206 235
135 206 235
135 206 235
135 206 235
135 206 235
135 206 235
135 206 235
135 206 235
135 206 235
135 206 235
135 206 235
135 206 235
135 206 235
135 206 235
135 206 235
40 40 40
40 40 40
40 40 40
40 40 40
40 40 40
40 40 40
40 40 40
40 40 40
40 40 40
40 40 40
40 40 40
40 40 40
40 40 40
40 40 40
40 40 40
40 40 40
40 40 40
40 40 40
40 40 40
40 40 40
40 40 40
40 40 40
40 40 40
135 206 235
135 206 235
135 206 235
135 206 235
135 206 235
135 206 235
135 206 235
135 206 235
135 206 235
135 206 235
135 206 235
135 206 235
135 206 235
135 206 235
135 206 235
135 206 235
135 206 235
135 206 235
135 206 235
135 206 235
135 206 235
135 206 235
135 206 235
135 206 235
135 206 235
135 206 235
135 206 235
135 206 235
135 206 235
135 206 235
135 206 235
135 206 235
135 206 235
135 206 235
135 206 235
135 206 235
135 206 235
135 206 235
135 206 235
135 206 235
135 206 235
135 206 235
135 206 235
135 206 235
135 206 235
135 206 235
135 206 235
135 206 235
135 206 235
135 206 235
135 206 235
135 206 235
135 206 235
135 206 235
135 206 235
135 206 235
40 40 40
40 40 40
40 40 40
40 40 40
40 40 40
40 40 40
40 40 40
40 40 40
40 40 40
40 40 40
40 40 40
40 40 40
40 40 40
40 40 40
40 40 40
40 40 40
40 40 40
40 40 40
40 40 40
40 40 40
40 40 40
40 40 40
40 40 40
40 40 40
40 40 40
135 206 235
135 206 235
135 206 235
135 206 235
135 206 235
135 206 235
135 206 235
135 206 235
135 206 235
135 206 235
135 206 235
135 206 235
135 206 235
135 206 235
135 206 235
135 206 235
135 206 235
135 206 235
135 206 235
135 206 235
135 206 235
135 206 235
135 206 235
135 206 235
135 206 235
135 206 235
135 206 235
135 206 235
135 206 235
135 206 235
135 206 235
135 206 235
135 206 235
135 206 235
135 206 235
135 206 235
135 206 235
135 206 235
135 206 235
135 206 235
135 206 235
135 206 235
135 206 235
135 206 235
135 206 235
135 206 235
135 206 235
135 206 235
135 206 235
135 206 235
135 206 235
135 206 235
135 206 235
135 206 235
40 40 40
40 40 40
40 40 40
40 40 40
40 40 40
40 40 40
40 40 40
40 40 40
40 40 40
40 40 40
40 40 40
40 40 40
40 40 40
40 40 40
40 40 40
40 40 40
40 40 40
40 40 40
40 40 40
40 40 40
40 40 40
40 40 40
40 40 40
40 40 40
40 40 40
40 40 40
40 40 40
135 206 235
135 206 235
135 206 235
135 206 235
135 206 235
135 206 235
135 206 235
135 206 235
135 206 235
135 206 235
135 206 235
135 206 235
135 206 235
135 206 235
135 206 235
135 206 235
135 206 235
135 206 235
135 206 235
135 206 235
135 206 235
135 206 235
135 206 235
135 206 235
135 206 235
135 206 235
135 206 235
135 206 235
135 206 235
135 206 235
135 206 235
135 206 235
135 206 235
135 206 235
135 206 235
135 206 235
135 206 235
135 206 235
135 206 235
135 206 235
135 206 235
135 206 235
135 206 235
135 206 235
135 206 235
135 206 235
135 206 235
135 206 235
135 206 235
135 206 235
135 206 235
135 206 235
40 40 40
40 40 40
40 40 40
40 40 40
40 40 40
40 40 40
40 40 40
40 40 40
40 40 40
40 40 40
40 40 40
40 40 40
40 40 40
40 40 40
40 40 40
40 40 40
40 40 40
40 40 40
40 40 40
40 40 40
40 40 40
40 40 40
40 40 40
40 40 40
40 40 40
40 40 40
40 40 40
40 40 40
40 40 40
135 206 235
135 206 235
135 206 235
135 206 235
135 206 235
135 206 235
135 206 235
135 206 235
135 206 235
135 206 235
135 206 235
135 206 235
135 206 235
135 206 235
135 206 235
135 206 235
135 206 235
135 206 235
135 206 235
135 206 235
135 206 235
135 206 235
135 206 235
135 206 235
135 206 235
135 206 235
135 206 235
135 206 235
135 206 235
135 206 235
135 206 235
135 206 235
135 206 235
135 206 235
135 206 235
135 206 235
135 206 235
135 206 235
135 206 235
135 206 235
135 206 235
135 206 235
135 206 235
135 206 235
135 206 235
135 206 235
135 206 235
135 206 235
135 206 235
135 206 235
40 40 40
40 40 40
40 40 40
40 40 40
40 40 40
40 40 40
40 40 40
40 40 40
40 40 40
40 40 40
40 40 40
40 40 40
40 40 40
40 40 40
40 40 40
255 255 255
40 40 40
40 40 40
40 40 40
40 40 40
40 40 40
40 40 40
40 40 40
40 40 40
40 40 40
40 40 40
40 40 40
40 40 40
40 40 40
40 40 40
40 40 40
135 206 235
135 206 235
135 206 235
135 206 235
135 206 235
135 206 235
135 206 235
135 206 235
135 206 235
135 206 235
135 206 235
135 206 235
135 206 235
135 206 235
135 206 235
135 206 235
135 206 235
135 206 235
135 206 235
135 206 235
135 206 235
135 206 235
135 206 235
135 206 235
135 206 235
135 206 235
135 206 235
135 206 235
135 206 235
135 206 235
135 206 235
135 206 235
135 206 235
135 206 235
135 206 235
135 206 235
135 206 235
135 206 235
135 206 235
135 206 235
135 206 235
135 206 235
135 206 235
135 206 235
135 206 235
135 206 235
135 206 235
135 206 235
40 40 40
40 40 40
40 40 40
40 40 40
40 40 40
40 40 40
40 40 40
40 40 40
40 40 40
40 40 40
40 40 40
40 40 40
40 40 40
40 40 40
40 40 40
255 255 255
255 255 255
255 255 255
40 40 40
40 40 40
40 40 40
40 40 40
40 40 40
40 40 40
40 40 40
40 40 40
40 40 40
40 40 40
40 40 40
40 40 40
40 40 40
40 40 40
40 40 40
135 206 235
135 206 235
135 206 235
135 206 235
135 206 235
135 206 235
135 206 235
135 206 235
135 206 235
135 206 235
135 206 235
135 206 235
135 206 235
135 206 235
135 206 235
135 206 235
135 206 235
135 206 235
135 206 235
135 206 235
135 206 235
135 206 235
135 206 235
135 206 235
135 206 235
135 206 235
135 206 235
135 206 235
135 206 235
135 206 235
135 206 235
135 206 235
135 206 235
135 206 235
135 206 235
135 206 235
135 206 235
135 206 235
135 206 235
135 206 235
135 206 235
135 206 235
135 206 235
135 206 235
135 206 235
135 206 235
40 40 40
40 40 40
40 40 40
40 40 40
40 40 40
40 40 40
40 40 40
40 40 40
40 40 40
40 40 40
40 40 40
40 40 40
40 40 40
40 40 40
40 40 40
255 255 255
255 255 255
255 255 255
255 255 255
255 255 255
40 40 40
40 40 40
40 40 40
40 40 40
40 40 40
40 40 40
40 40 40
40 40 40
40 40 40
40 40 40
40 40 40
40 40 40
40 40 40
40 40 40
40 40 40
135 206 235
135 206 235
135 206 235
135 206 235
135 206 235
135 206 235
135 206 235
135 206 235
135 206 235
135 206 235
135 206 235
135 206 235
135 206 235
135 206 235
135 206 235
135 206 235
135 206 235
135 206 235
135 206 235
135 206 235
135 206 235
135 206 235
135 206 235
135 206 235
135 206 235
135 206 235
135 206 235
135 206 235
135 206 235
135 206 235
135 206 235
135 206 235
135 206 235
135 206 235
135 206 235
135 206 235
135 206 235
135 206 235
135 206 235
135 206 235
135 206 235
135 206 235
135 206 235
135 206 235
40 40 40
40 40 40
40 40 40
40 40 40
40 40 40
40 40 40
40 40 40
40 40 40
40 40 40
40 40 40
40 40 40
40 40 40
40 40 40
40 40 40
40 40 40
255 255 255
255 255 255
255 255 255
255 255 255
255 255 255
255 255 255
255 255 255
40 40 40
40 40 40
40 40 40
40 40 40
40 40 40
40 40 40
40 40 40
40 40 40
40 40 40
40 40 40
40 40 40
40 40 40
40 40 40
40 40 40
40 40 40
135 206 235
135 206 235
135 206 235
135 206 235
135 206 235
135 206 235
135 206 235
135 206 235
135 206 235
135 206 235
135 206 235
135 206 235
135 206 235
135 206 235
135 206 235
135 206 235
135 206 235
135 206 235
135 206 235
135 206 235
135 206 235
135 206 235
135 206 235
135 206 235
135 206 235
135 206 235
135 206 235
135 206 235
135 206 235
135 206 235
135 206 235
135 206 235
135 206 235
135 206 235
135 206 235
135 206 235
135 206 235
135 206 235
135 206 235
135 206 235
135 206 235
135 206 235
40 40 40
40 40 40
40 40 40
40 40 40
40 40 40
40 40 40
40 40 40
40 40 40
40 40 40
40 40 40
40 40 40
40 40 40
40 40 40
40 40 40
40 40 40
255 255 255
255 255 255
255 255 255
255 255 255
255 255 255
255 255 255
255 255 255
255 255 255
255 255 255
40 40 40
40 40 40
40 40 40
40 40 40
40 40 40
40 40 40
40 40 40
40 40 40
40 40 40
40 40 40
40 40 40
40 40 40
40 40 40
40 40 40
40 40 40
135 206 235
135 206 235
135 206 235
135 206 235
135 206 235
135 206 235
135 206 235
135 206 235
135 206 235
135 206 235
135 206 235
135 206 235
135 206 235
135 206 235
135 206 235
135 206 235
135 206 235
135 206 235
135 206 235
135 206 235
135 206 235
135 206 235
135 206 235
135 206 235
135 206 235
135 206 235
135 206 235
135 206 235
135 206 235
135 206 235
135 206 235
135 206 235
135 206 235
135 206 235
135 206 235
135 206 235
135 206 235
135 206 235
135 206 235
135 206 235
40 40 40
40 40 40
40 40 40
40 40 40
40 40 40
40 40 40
40 40 40
40 40 40
40 40 40
40 40 40
40 40 40
40 40 40
40 40 40
40 40 40
40 40 40
255 255 255
255 255 255
255 255 255
255 255 255
255 255 255
255 255 255
255 255 255
255 255 255
255 255 255
255 255 255
255 255 255
40 40 40
40 40 40
40 40 40
40 40 40
40 40 40
40 40 40
40 40 40
40 40 40
40 40 40
40 40 40
40 40 40
40 40 40
40 40 40
40 40 40
40 40 40
135 206 235
135 206 235
135 206 235
135 206 235
135 206 235
135 206 235
135 206 235
135 206 235
135 206 235
135 206 235
135 206 235
135 206 235
135 206 235
135 206 235
135 206 235
135 206 235
135 206 235
135 206 235
135 206 235
135 206 235
135 206 235
135 206 235
135 206 235
135 206 235
135 206 235
135 206 235
135 206 235
135 206 235
135 206 235
135 206 235
135 206 235
135 206 235
135 206 235
135 206 235
135 206 235
135 206 235
135 206 235
135 206 235
40 40 40
40 40 40
40 40 40
40 40 40
40 40 40
40 40 40
40 40 40
40 40 40
40 40 40
40 40 40
40 40 40
40 40 40
40 40 40
40 40 40
40 40 40
255 255 255
255 255 255
255 255 255
255 255 255
255 255 255
255 255 255
255 255 255
255 255 255
255 255 255
255 255 255
255 255 255
255 255 255
255 255 255
40 40 40
40 40 40
40 40 40
40 40 40
40 40 40
40 40 40
40 40 40
40 40 40
40 40 40
40 40 40
40 40 40
40 40 40
40 40 40
40 40 40
40 40 40
135 206 235
135 206 235
135 206 235
135 206 235
135 206 235
135 206 235
135 206 235
135 206 235
135 206 235
135 206 235
135 206 235
135 206 235
135 206 235
135 206 235
135 206 235
135 206 235
135 206 235
135 206 235
135 206 235
135 206 235
135 206 235
135 206 235
135 206 235
135 206 235
135 206 235
135 206 235
135 206 235
135 206 235
135 206 235
135 206 235
135 206 235
135 206 235
135 206 235
135 206 235
135 206 235
135 206 235
40 40 40
40 40 40
40 40 40
40 40 40
40 40 40
40 40 40
40 40 40
40 40 40
40 40 40
40 40 40
40 40 40
40 40 40
40 40 40
40 40 40
40 40 40
255 255 255
255 255 255
255 255 255
255 255 255
255 255 255
255 255 255
255 255 255
255 255 255
255 255 255
255 255 255
255 255 255
255 255 255
255 255 255
255 255 255
255 255 255
40 40 40
40 40 40
40 40 40
40 40 40
40 40 40
40 40 40
40 40 40
40 40 40
40 40 40
40 40 40
40 40 40
40 40 40
40 40 40
40 40 40
40 40 40
135 206 235
135 206 235
135 206 235
135 206 235
135 206 235
135 206 235
135 206 235
135 206 235
135 206 235
135 206 235
135 206 235
135 206 235
135 206 235
135 206 235
135 206 235
135 206 235
135 206 235
135 206 235
135 206 235
135 206 235
135 206 235
135 206 235
135 206 235
135 206 235
135 206 235
135 206 235
135 206 235
135 206 235
135 206 235
135 206 235
135 206 235
135 206 235
135 206 235
135 206 235
40 40 40
40 40 40
40 40 40
40 40 40
40 40 40
40 40 40
40 40 40
40 40 40
40 40 40
40 40 40
40 40 40
40 40 40
40 40 40
40 40 40
40 40 40
255 255 255
255 255 255
255 255 255
255 255 255
255 255 255
255 255 255
255 255 255
255 255 255
255 255 255
255 255 255
255 255 255
255 255 255
255 255 255
255 255 255
255 255 255
255 255 255
255 255 255
40 40 40
40 40 40
40 40 40
40 40 40
40 40 40
40 40 40
40 40 40
40 40 40
40 40 40
40 40 40
40 40 40
40 40 40
40 40 40
40 40 40
40 40 40
135 206 235
135 206 235
135 206 235
135 206 235
135 206 235
135 206 235
135 206 235
135 206 235
135 206 235
135 206 235
135 206 235
135 206 235
135 206 235
135 206 235
135 206 235
135 206 235
135 206 235
135 206 235
135 206 235
135 206 235
135 206 235
135 206 235
135 206 235
135 206 235
135 206 235
135 206 235
135 206 235
135 206 235
135 206 235
135 206 235
135 206 235
135 206 235
40 40 40
40 40 40
40 40 40
40 40 40
40 40 40
40 40 40
40 40 40
40 40 40
40 40 40
40 40 40
40 40 40
40 40 40
40 40 40
40 40 40
40 40 40
255 255 255
255 255 255
255 255 255
255 255 255
255 255 255
255 255 255
255 255 255
255 255 255
255 255 255
255 255 255
255 255 255
255 255 255
255 255 255
255 255 255
255 255 255
255 255 255
255 255 255
255 255 255
255 255 255
40 40 40
40 40 40
40 40 40
40 40 40
40 40 40
40 40 40
40 40 40
40 40 40
40 40 40
40 40 40
40 40 40
40 40 40
40 40 40
40 40 40
40 40 40
135 206 235
135 206 235
135 206 235
135 206 235
135 206 235
135 206 235
135 206 235
135 206 235
135 206 235
135 206 235
135 206 235
135 206 235
135 206 235
135 206 235
135 206 235
135 206 235
135 206 235
135 206 235
135 206 235
135 206 235
135 206 235
135 206 235
135 206 235
135 206 235
135 206 235
135 206 235
135 206 235
135 206 235
135 206 235
135 206 235
40 40 40
40 40 40
40 40 40
40 40 40
40 40 40
40 40 40
40 40 40
40 40 40
40 40 40
40 40 40
40 40 40
40 40 40
40 40 40
40 40 40
40 40 40
255 255 255
255 255 255
255 255 255
255 255 255
255 255 255
255 255 255
255 255 255
255 255 255
255 255 255
255 255 255
255 255 255
255 255 255
255 255 255
255 255 255
255 255 255
255 255 255
255 255 255
255 255 255
255 255 255
255 255 255
255 255 255
40 40 40
40 40 40
40 40 40
40 40 40
40 40 40
40 40 40
40 40 40
40 40 40
40 40 40
40 40 40
40 40 40
40 40 40
40 40 40
40 40 40
40 40 40
135 206 235
135 206 235
135 206 235
135 206 235
135 206 235
135 206 235
135 206 235
135 206 235
135 206 235
135 206 235
135 206 235
135 206 235
135 206 235
135 206 235
135 206 235
135 206 235
135 206 235
135 206 235
135 206 235
135 206 235
135 206 235
135 206 235
135 206 235
135 206 235
135 206 235
135 206 235
135 206 235
135 206 235
40 40 40
40 40 40
40 40 40
40 40 40
40 40 40
40 40 40
40 40 40
40 40 40
40 40 40
40 40 40
40 40 40
40 40 40
40 40 40
40 40 40
40 40 40
255 255 255
255 255 255
255 255 255
255 255 255
255 255 255
255 255 255
255 255 255
255 255 255
255 255 255
255 255 255
255 255 255
255 255 255
255 255 255
255 255 255
255 255 255
255 255 255
255 255 255
255 255 255
255 255 255
255 255 255
255 255 255
255 255 255
255 255 255
40 40 40
40 40 40
40 40 40
40 40 40
40 40 40
40 40 40
40 40 40
40 40 40
40 40 40
40 40 40
40 40 40
40 40 40
40 40 40
40 40 40
40 40 40
135 206 235
135 206 235
135 206 235
135 206 235
135 206 235
135 206 235
135 206 235
135 206 235
135 206 235
135 206 235
135 206 235
135 206 235
135 206 235
135 206 235
135 206 235
135 206 235
135 206 235
135 206 235
135 206 235
135 206 235
135 206 235
135 206 235
135 206 235
135 206 235
135 206 235
135 206 235
40 40 40
40 40 40
40 40 40
40 40 40
40 40 40
40 40 40
40 40 40
40 40 40
40 40 40
40 40 40
40 40 40
40 40 40
40 40 40
40 40 40
40 40 40
255 255 255
255 255 255
255 255 255
255 255 255
255 255 255
255 255 255
255 255 255
255 255 255
255 255 255
255 255 255
255 255 255
255 255 255
255 255 255
255 255 255
255 255 255
255 255 255
255 255 255
255 255 255
255 255 255
255 255 255
255 255 255
255 255 255
255 255 255
255 255 255
255 255 255
40 40 40
40 40 40
40 40 40
40 40 40
40 40 40
40 40 40
40 40 40
40 40 40
40 40 40
40 40 40
40 40 40
40 40 40
40 40 40
40 40 40
40 40 40
135 206 235
135 206 235
135 206 235
135 206 235
135 206 235
135 206 235
135 206 235
135 206 235
135 206 235
135 206 235
135 206 235
135 206 235
135 206 235
135 206 235
135 206 235
135 206 235
135 206 235
135 206 235
135 206 235
135 206 235
135 206 235
135 206 235
135 206 235
135 206 235
40 40 40
40 40 40
40 40 40
40 40 40
40 40 40
40 40 40
40 40 40
40 40 40
40 40 40
40 40 40
40 40 40
40 40 40
40 40 40
40 40 40
40 40 40
255 255 255
255 255 255
255 255 255
255 255 255
255 255 255
255 255 255
255 255 255
255 255 255
255 255 255
255 255 255
255 255 255
255 255 255
255 255 255
255 255 255
255 255 255
255 255 255
255 255 255
255 255 255
255 255 255
255 255 255
255 255 255
255 255 255
255 255 255
255 255 255
255 255 255
255 255 255
255 255 255
40 40 40
40 40 40
40 40 40
40 40 40
40 40 40
40 40 40
40 40 40
40 40 40
40 40 40
40 40 40
40 40 40
40 40 40
40 40 40
40 40 40
40 40 40
135 206 235
135 206 235
135 206 235
135 206 235
135 206 235
135 206 235
135 206 235
135 206 235
135 206 235
135 206 235
135 206 235
135 206 235
135 206 235
135 206 235
135 206 235
135 206 235
135 206 235
135 206 235
135 206 235
135 206 235
135 206 235
135 206 235
40 40 40
40 40 40
40 40 40
40 40 40
40 40 40
40 40 40
40 40 40
40 40 40
40 40 40
40 40 40
40 40 40
40 40 40
40 40 40
40 40 40
40 40 40
255 255 255
255 255 255
255 255 255
255 255 255
255 255 255
255 255 255
255 255 255
255 255 255
255 255 255
255 255 255
255 255 255
255 255 255
255 255 255
255 255 255
255 255 255
255 255 255
255 255 255
255 255 255
255 255 255
255 255 255
255 255 255
255 255 255
255 255 255
255 255 255
255 255 255
255 255 255
255 255 255
255 255 255
255 255 255
40 40 40
40 40 40
40 40 40
40 40 40
40 40 40
40 40 40
40 40 40
40 40 40
40 40 40
40 40 40
40 40 40
40 40 40
40 40 40
40 40 40
40 40 40
135 206 235
135 206 235
135 206 235
135 206 235
135 206 235
135 206 235
135 206 235
135 206 235
135 206 235
135 206 235
135 206 235
135 206 235
135 206 235
135 206 235
135 206 235
135 206 235
135 206 235
135 206 235
135 206 235
135 206 235
135 206 235
135 206 235
40 40 40
40 40 40
40 40 40
40 40 40
40 40 40
40 40 40
40 40 40
40 40 40
40 40 40
40 40 40
40 40 40
40 40 40
40 40 40
40 40 40
40 40 40
255 255 255
255 255 255
255 255 255
255 255 255
255 255 255
255 255 255
255 255 255
255 255 255
255 255 255
255 255 255
255 255 255
255 255 255
255 255 255
255 255 255
255 255 255
255 255 255
255 255 255
255 255 255
255 255 255
255 255 255
255 255 255
255 255 255
255 255 255
255 255 255
255 255 255
255 255 255
255 255 255
40 40 40
40 40 40
40 40 40
40 40 40
40 40 40
40 40 40
40 40 40
40 40 40
40 40 40
40 40 40
40 40 40
40 40 40
40 40 40
40 40 40
40 40 40
135 206 235
135 206 235
135 206 235
135 206 235
135 206 235
135 206 235
135 206 235
135 206 235
135 206 235
135 206 235
135 206 235
135 206 235
135 206 235
135 206 235
135 206 235
135 206 235
135 206 235
135 206 235
135 206 235
135 206 235
135 206 235
135 206 235
135 206 235
135 206 235
40 40 40
40 40 40
40 40 40
40 40 40
40 40 40
40 40 40
40 40 40
40 40 40
40 40 40
40 40 40
40 40 40
40 40 40
40 40 40
40 40 40
40 40 40
255 255 255
255 255 255
255 255 255
255 255 255
255 255 255
255 255 255
255 255 255
255 255 255
255 255 255
255 255 255
255 255 255
255 255 255
255 255 255
255 255 255
255 255 255
255 255 255
255 255 255
255 255 255
255 255 255
255 255 255
255 255 255
255 255 255
255 255 255
255 255 255
255 255 255
40 40 40
40 40 40
40 40 40
40 40 40
40 40 40
40 40 40
40 40 40
40 40 40
40 40 40
40 40 40
40 40 40
40 40 40
40 40 40
40 40 40
40 40 40
135 206 235
135 206 235
135 206 235
135 206 235
135 206 235
135 206 235
135 206 235
135 206 235
135 206 235
135 206 235
135 206 235
135 206 235
135 206 235
135 206 235
135 206 235
135 206 235
135 206 235
135 206 235
135 206 235
135 206 235
135 206 235
135 206 235
135 206 235
135 206 235
135 206 235
135 206 235
40 40 40
40 40 40
40 40 40
40 40 40
40 40 40
40 40 40
40 40 40
40 40 40
40 40 40
40 40 40
40 40 40
40 40 40
40 40 40
40 40 40
40 40 40
255 255 255
255 255 255
255 255 255
255 255 255
255 255 255
255 255 255
255 255 255
255 255 255
255 255 255
255 255 255
255 255 255
255 255 255
255 255 255
255 255 255
255 255 255
255 255 255
255 255 255
255 255 255
255 255 255
255 255 255
255 255 255
255 255 255
255 255 255
40 40 40
40 40 40
40 40 40
40 40 40
40 40 40
40 40 40
40 40 40
40 40 40
40 40 40
40 40 40
40 40 40
40 40 40
40 40 40
40 40 40
40 40 40
135 206 235
135 206 235
135 206 235
135 206 235
135 206 235
135 206 235
135 206 235
135 206 235
135 206 235
135 206 235
135 206 235
135 206 235
135 206 235
135 206 235
135 206 235
135 206 235
135 206 235
135 206 235
135 206 235
135 206 235
135 206 235
135 206 235
135 206 235
135 206 235
135 206 235
135 206 235
135 206 235
135 206 235
40 40 40
40 40 40
40 40 40
40 40 40
40 40 40
40 40 40
40 40 40
40 40 40
40 40 40
40 40 40
40 40 40
40 40 40
40 40 40
40 40 40
40 40 40
255 255 255
255 255 255
255 255 255
255 255 255
255 255 255
255 255 255
255 255 255
255 255 255
255 255 255
255 255 255
255 255 255
255 255 255
255 255 255
255 255 255
255 255 255
255 255 255
255 255 255
255 255 255
255 255 255
255 255 255
255 255 255
40 40 40
40 40 40
40 40 40
40 40 40
40 40 40
40 40 40
40 40 40
40 40 40
40 40 40
40 40 40
40 40 40
40 40 40
40 40 40
40 40 40
40 40 40
135 206 235
135 206 235
135 206 235
135 206 235
135 206 235
135 206 235
135 206 235
135 206 235
135 206 235
135 206 235
135 206 235
135 206 235
135 206 235
135 206 235
135 206 235
135 206 235
135 206 235
135 206 235
135 206 235
135 206 235
135 206 235
135 206 235
135 206 235
135 206 235
135 206 235
135 206 235
135 206 235
135 206 235
135 206 235
135 206 235
40 40 40
40 40 40
40 40 40
40 40 40
40 40 40
40 40 40
40 40 40
40 40 40
40 40 40
40 40 40
40 40 40
40 40 40
40 40 40
40 40 40
40 40 40
255 255 255
255 255 255
255 255 255
255 255 255
255 255 255
255 255 255
255 255 255
255 255 255
255 255 255
255 255 255
255 255 255
255 255 255
255 255 255
255 255 255
255 255 255
255 255 255
255 255 255
255 255 255
255 255 255
40 40 40
40 40 40
40 40 40
40 40 40
40 40 40
40 40 40
40 40 40
40 40 40
40 40 40
40 40 40
40 40 40
40 40 40
40 40 40
40 40 40
40 40 40
135 206 235
135 206 235
135 206 235
135 206 235
135 206 235
135 206 235
135 206 235
135 206 235
135 206 235
135 206 235
135 206 235
135 206 235
135 206 235
135 206 235
135 206 235
135 206 235
135 206 235
135 206 235
135 206 235
135 206 235
135 206 235
135 206 235
135 206 235
135 206 235
135 206 235
135 206 235
135 206 235
135 206 235
135 206 235
135 206 235
135 206 235
135 206 235
40 40 40
40 40 40
40 40 40
40 40 40
40 40 40
40 40 40
40 40 40
40 40 40
40 40 40
40 40 40
40 40 40
40 40 40
40 40 40
40 40 40
40 40 40
255 255 255
255 255 255
255 255 255
255 255 255
255 255 255
255 255 255
255 255 255
255 255 255
255 255 255
255 255 255
255 255 255
255 255 255
255 255 255
255 255 255
255 255 255
255 255 255
255 255 255
40 40 40
40 40 40
40 40 40
40 40 40
40 40 40
40 40 40
40 40 40
40 40 40
40 40 40
40 40 40
40 40 40
40 40 40
40 40 40
40 40 40
40 40 40
135 206 235
135 206 235
135 206 235
135 206 235
135 206 235
135 206 235
135 206 235
135 206 235
135 206 235
135 206 235
135 206 235
135 206 235
135 206 235
135 206 235
135 206 235
135 206 235
135 206 235
135 206 235
135 206 235
135 206 235
135 206 235
135 206 235
135 206 235
135 206 235
135 206 235
135 206 235
135 206 235
135 206 235
135 206 235
135 206 235
135 206 235
135 206 235
135 206 235
135 206 235
40 40 40
40 40 40
40 40 40
40 40 40
40 40 40
40 40 40
40 40 40
40 40 40
40 40 40
40 40 40
40 40 40
40 40 40
40 40 40
40 40 40
40 40 40
255 255 255
255 255 255
255 255 255
255 255 255
255 255 255
255 255 255
255 255 255
255 255 255
255 255 255
255 255 255
255 255 255
255 255 255
255 255 255
255 255 255
255 255 255
40 40 40
40 40 40
40 40 40
40 40 40
40 40 40
40 40 40
40 40 40
40 40 40
40 40 40
40 40 40
40 40 40
40 40 40
40 40 40
40 40 40
40 40 40
135 206 235
135 206 235
135 206 235
135 206 235
135 206 235
135 206 235
135 206 235
135 206 235
135 206 235
135 206 235
135 206 235
135 206 235
135 206 235
135 206 235
135 206 235
135 206 235
135 206 235
135 206 235
135 206 235
135 206 235
135 206 235
135 206 235
135 206 235
135 206 235
135 206 235
135 206 235
135 206 235
135 206 235
135 206 235
135 206 235
135 206 235
135 206 235
135 206 235
135 206 235
135 206 235
135 206 235
40 40 40
40 40 40
40 40 40
40 40 40
40 40 40
40 40 40
40 40 40
40 40 40
40 40 40
40 40 40
40 40 40
40 40 40
40 40 40
40 40 40
40 40 40
255 255 255
255 255 255
255 255 255
255 255 255
255 255 255
255 255 255
255 255 255
255 255 255
255 255 255
255 255 255
255 255 255
255 255 255
255 255 255
40 40 40
40 40 40
40 40 40
40 40 40
40 40 40
40 40 40
40 40 40
40 40 40
40 40 40
40 40 40
40 40 40
40 40 40
40 40 40
40 40 40
40 40 40
135 206 235
135 206 235
135 206 235
135 206 235
135 206 235
135 206 235
135 206 235
135 206 235
135 206 235
135 206 235
135 206 235
135 206 235
135 206 235
135 206 235
135 206 235
135 206 235
135 206 235
135 206 235
135 206 235
135 206 235
135 206 235
135 206 235
135 206 235
135 206 235
135 206 235
135 206 235
135 206 235
135 206 235
135 206 235
135 206 235
135 206 235
135 206 235
135 206 235
135 206 235
135 206 235
135 206 235
135 206 235
135 206 235
40 40 40
40 40 40
40 40 40
40 40 40
40 40 40
40 40 40
40 40 40
40 40 40
40 40 40
40 40 40
40 40 40
40 40 40
40 40 40
40 40 40
40 40 40
255 255 255
255 255 255
255 255 255
255 255 255
255 255 255
255 255 255
255 255 255
255 255 255
255 255 255
255 255 255
255 255 255
40 40 40
40 40 40
40 40 40
40 40 40
40 40 40
40 40 40
40 40 40
40 40 40
40 40 40
40 40 40
40 40 40
40 40 40
40 40 40
40 40 40
40 40 40
135 206 235
135 206 235
135 206 235
135 206 235
135 206 235
135 206 235
135 206 235
135 206 235
135 206 235
135 206 235
135 206 235
135 206 235
135 206 235
135 206 235
135 206 235
135 206 235
135 206 235
135 206 235
135 206 235
135 206 235
135 206 235
135 206 235
135 206 235
135 206 235
135 206 235
135 206 235
135 206 235
135 206 235
135 206 235
135 206 235
135 206 235
135 206 235
135 206 235
135 206 235
135 206 235
135 206 235
135 206 235
135 206 235
135 206 235
135 206 235
40 40 40
40 40 40
40 40 40
40 40 40
40 40 40
40 40 40
40 40 40
40 40 40
40 40 40
40 40 40
40 40 40
40 40 40
40 40 40
40 40 40
40 40 40
255 255 255
255 255 255
255 255 255
255 255 255
255 255 255
255 255 255
255 255 255
255 255 255
255 255 255
40 40 40
40 40 40
40 40 40
40 40 40
40 40 40
40 40 40
40 40 40
40 40 40
40 40 40
40 40 40
40 40 40
40 40 40
40 40 40
40 40 40
40 40 40
135 206 235
135 206 235
135 206 235
135 206 235
135 206 235
135 206 235
135 206 235
135 206 235
135 206 235
135 206 235
135 206 235
135 206 235
135 206 235
135 206 235
135 206 235
135 206 235
135 206 235
135 206 235
135 206 235
135 206 235
135 206 235
135 206 235
135 206 235
135 206 235
135 206 235
135 206 235
135 206 235
135 206 235
135 206 235
135 206 235
135 206 235
135 206 235
135 206 235
135 206 235
135 206 235
135 206 235
135 206 235
135 206 235
135 206 235
135 206 235
135 206 235
135 206 235
40 40 40
40 40 40
40 40 40
40 40 40
40 40 40
40 40 40
40 40 40
40 40 40
40 40 40
40 40 40
40 40 40
40 40 40
40 40 40
40 40 40
40 40 40
255 255 255
255 255 255
255 255 255
255 255 255
255 255 255
255 255 255
255 255 255
40 40 40
40 40 40
40 40 40
40 40 40
40 40 40
40 40 40
40 40 40
40 40 40
40 40 40
40 40 40
40 40 40
40 40 40
40 40 40
40 40 40
40 40 40
135 206 235
135 206 235
135 206 235
135 206 235
135 206 235
135 206 235
135 206 235
135 206 235
135 206 235
135 206 235
135 206 235
135 206 235
135 206 235
135 206 235
135 206 235
135 206 235
135 206 235
135 206 235
135 206 235
135 206 235
135 206 235
135 206 235
135 206 235
135 206 235
135 206 235
135 206 235
135 206 235
135 206 235
135 206 235
135 206 235
135 206 235
135 206 235
135 206 235
135 206 235
135 206 235
135 206 235
135 206 235
135 206 235
135 206 235
135 206 235
135 206 235
135 206 235
135 206 235
135 206 235
40 40 40
40 40 40
40 40 40
40 40 40
40 40 40
40 40 40
40 40 40
40 40 40
40 40 40
40 40 40
40 40 40
40 40 40
40 40 40
40 40 40
40 40 40
255 255 255
255 255 255
255 255 255
255 255 255
255 255 255
40 40 40
40 40 40
40 40 40
40 40 40
40 40 40
40 40 40
40 40 40
40 40 40
40 40 40
40 40 40
40 40 40
40 40 40
40 40 40
40 40 40
40 40 40
135 206 235
135 206 235
135 206 235
135 206 235
135 206 235
135 206 235
135 206 235
135 206 235
135 206 235
135 206 235
135 206 235
135 206 235
135 206 235
135 206 235
135 206 235
135 206 235
135 206 235
135 206 235
135 206 235
135 206 235
135 206 235
135 206 235
135 206 235
135 206 235
135 206 235
135 206 235
135 206 235
135 206 235
135 206 235
135 206 235
135 206 235
135 206 235
135 206 235
135 206 235
135 206 235
135 206 235
135 206 235
135 206 235
135 206 235
135 206 235
135 206 235
135 206 235
135 206 235
135 206 235
135 206 235
135 206 235
40 40 40
40 40 40
40 40 40
40 40 40
40 40 40
40 40 40
40 40 40
40 40 40
40 40 40
40 40 40
40 40 40
40 40 40
40 40 40
40 40 40
40 40 40
255 255 255
255 255 255
255 255 255
40 40 40
40 40 40
40 40 40
40 40 40
40 40 40
40 40 40
40 40 40
40 40 40
40 40 40
40 40 40
40 40 40
40 40 40
40 40 40
40 40 40
40 40 40
135 206 235
135 206 235
135 206 235
135 206 235
135 206 235
135 206 235
135 206 235
135 206 235
135 206 235
135 206 235
135 206 235
135 206 235
135 206 235
135 206 235
135 206 235
135 206 235
135 206 235
135 206 235
135 206 235
135 206 235
135 206 235
135 206 235
135 206 235
135 206 235
135 206 235
135 206 235
135 206 235
135 206 235
135 206 235
135 206 235
135 206 235
135 206 235
135 206 235
135 206 235
135 206 235
135 206 235
135 206 235
135 206 235
135 206 235
135 206 235
135 206 235
135 206 235
135 206 235
135 206 235
135 206 235
135 206 235
135 206 235
135 206 235
40 40 40
40 40 40
40 40 40
40 40 40
40 40 40
40 40 40
40 40 40
40 40 40
40 40 40
40 40 40
40 40 40
40 40 40
40 40 40
40 40 40
40 40 40
255 255 255
40 40 40
40 40 40
40 40 40
40 40 40
40 40 40
40 40 40
40 40 40
40 40 40
40 40 40
40 40 40
40 40 40
40 40 40
40 40 40
40 40 40
40 40 40
135 206 235
135 206 235
135 206 235
135 206 235
135 206 235
135 206 235
135 206 235
135 206 235
135 206 235
135 206 235
135 206 235
135 206 235
135 206 235
135 206 235
135 206 235
135 206 235
135 206 235
135 206 235
135 206 235
135 206 235
135 206 235
135 206 235
135 206 235
135 206 235
135 206 235
135 206 235
135 206 235
135 206 235
135 206 235
135 206 235
135 206 235
135 206 235
135 206 235
135 206 235
135 206 235
135 206 235
135 206 235
135 206 235
135 206 235
135 206 235
135 206 235
135 206 235
135 206 235
135 206 235
135 206 235
135 206 235
135 206 235
135 206 235
135 206 235
135 206 235
40 40 40
40 40 40
40 40 40
40 40 40
40 40 40
40 40 40
40 40 40
40 40 40
40 40 40
40 40 40
40 40 40
40 40 40
40 40 40
40 40 40
40 40 40
40 40 40
40 40 40
40 40 40
40 40 40
40 40 40
40 40 40
40 40 40
40 40 40
40 40 40
40 40 40
40 40 40
40 40 40
40 40 40
40 40 40
135 206 235
135 206 235
135 206 235
135 206 235
135 206 235
135 206 235
135 206 235
135 206 235
135 206 235
135 206 235
135 206 235
135 206 235
135 206 235
135 206 235
135 206 235
135 206 235
135 206 235
135 206 235
135 206 235
135 206 235
135 206 235
135 206 235
135 206 235
135 206 235
135 206 235
135 206 235
135 206 235
135 206 235
135 206 235
135 206 235
135 206 235
135 206 235
135 206 235
135 206 235
135 206 235
135 206 235
135 206 235
135 206 235
135 206 235
135 206 235
135 206 235
135 206 235
135 206 235
135 206 235
135 206 235
135 206 235
135 206 235
135 206 235
135 206 235
135 206 235
135 206 235
135 206 235
40 40 40
40 40 40
40 40 40
40 40 40
40 40 40
40 40 40
40 40 40
40 40 40
40 40 40
40 40 40
40 40 40
40 40 40
40 40 40
40 40 40
40 40 40
40 40 40
40 40 40
40 40 40
40 40 40
40 40 40
40 40 40
40 40 40
40 40 40
40 40 40
40 40 40
40 40 40
40 40 40
135 206 235
135 206 235
135 206 235
135 206 235
135 206 235
135 206 235
135 206 235
135 206 235
135 206 235
135 206 235
135 206 235
135 206 235
135 206 235
135 206 235
135 206 235
135 206 235
135 206 235
135 206 235
135 206 235
135 206 235
135 206 235
135 206 235
135 206 235
135 206 235
135 206 235
135 206 235
135 206 235
135 206 235
135 206 235
135 206 235
135 206 235
135 206 235
135 206 235
135 206 235
135 206 235
135 206 235
135 206 235
135 206 235
135 206 235
135 206 235
135 206 235
135 206 235
135 206 235
135 206 235
135 206 235
135 206 235
135 206 235
135 206 235
135 206 235
135 206 235
135 206 235
135 206 235
135 206 235
135 206 235
40 40 40
40 40 40
40 40 40
40 40 40
40 40 40
40 40 40
40 40 40
40 40 40
40 40 40
40 40 40
40 40 40
40 40 40
40 40 40
40 40 40
40 40 40
40 40 40
40 40 40
40 40 40
40 40 40
40 40 40
40 40 40
40 40 40
40 40 40
40 40 40
40 40 40
135 206 235
135 206 235
135 206 235
135 206 235
135 206 235
135 206 235
135 206 235
135 206 235
135 206 235
135 206 235
135 206 235
135 206 235
135 206 235
135 206 235
135 206 235
135 206 235
135 206 235
135 206 235
135 206 235
135 206 235
135 206 235
135 206 235
135 206 235
135 206 235
135 206 235
135 206 235
135 206 235
135 206 235
135 206 235
135 206 235
135 206 235
135 206 235
135 206 235
135 206 235
135 206 235
135 206 235
135 206 235
135 206 235
135 206 235
135 206 235
135 206 235
135 206 235
135 206 235
135 206 235
135 206 235
135 206 235
135 206 235
135 206 235
135 206 235
135 206 235
135 206 235
135 206 235
135 206 235
135 206 235
135 206 235
135 206 235
40 40 40
40 40 40
40 40 40
40 40 40
40 40 40
40 40 40
40 40 40
40 40 40
40 40 40
40 40 40
40 40 40
40 40 40
40 40 40
40 40 40
40 40 40
40 40 40
40 40 40
40 40 40
40 40 40
40 40 40
40 40 40
40 40 40
40 40 40
135 206 235
135 206 235
135 206 235
135 206 235
135 206 235
135 206 235
135 206 235
135 206 235
135 206 235
135 206 235
135 206 235
135 206 235
135 206 235
135 206 235
135 206 235
135 206 235
135 206 235
135 206 235
135 206 235
135 206 235
135 206 235
135 206 235
135 206 235
135 206 235
135 206 235
135 206 235
135 206 235
135 206 235
135 206 235
135 206 235
135 206 235
135 206 235
135 206 235
135 206 235
135 206 235
135 206 235
135 206 235
135 206 235
135 206 235
135 206 235
135 206 235
135 206 235
135 206 235
135 206 235
135 206 235
135 206 235
135 206 235
135 206 235
135 206 235
135 206 235
135 206 235
135 206 235
135 206 235
135 206 235
135 206 235
135 206 235
135 206 235
135 206 235
40 40 40
40 40 40
40 40 40
40 40 40
40 40 40
40 40 40
40 40 40
40 40 40
40 40 40
40 40 40
40 40 40
40 40 40
40 40 40
40 40 40
40 40 40
40 40 40
40 40 40
40 40 40
40 40 40
40 40 40
40 40 40
135 206 235
135 206 235
135 206 235
135 206 235
135 206 235
135 206 235
135 206 235
135 206 235
135 206 235
135 206 235
135 206 235
135 206 235
135 206 235
135 206 235
135 206 235
135 206 235
135 206 235
135 206 235
135 206 235
135 206 235
135 206 235
135 206 235
135 206 235
135 206 235
135 206 235
135 206 235
135 206 235
135 206 235
135 206 235
135 206 235
135 206 235
135 206 235
135 206 235
135 206 235
135 206 235
135 206 235
135 206 235
135 206 235
135 206 235
135 206 235
135 206 235
135 206 235
135 206 235
135 206 235
135 206 235
135 206 235
135 206 235
135 206 235
135 206 235
135 206 235
135 206 235
135 206 235
135 206 235
135 206 235
135 206 235
135 206 235
135 206 235
135 206 235
135 206 235
135 206 235
40 40 40
40 40 40
40 40 40
40 40 40
40 40 40
40 40 40
40 40 40
40 40 40
40 40 40
40 40 40
40 40 40
40 40 40
40 40 40
40 40 40
40 40 40
40 40 40
40 40 40
40 40 40
40 40 40
135 206 235
135 206 235
135 206 235
135 206 235
135 206 235
135 206 235
135 206 235
135 206 235
135 206 235
135 206 235
135 206 235
135 206 235
135 206 235
135 206 235
135 206 235
135 206 235
135 206 235
135 206 235
135 206 235
135 206 235
135 206 235
135 206 235
135 206 235
135 206 235
135 206 235
135 206 235
135 206 235
135 206 235
135 206 235
135 206 235
135 206 235
135 206 235
135 206 235
135 206 235
135 206 235
135 206 235
135 206 235
135 206 235
135 206 235
135 206 235
135 206 235
135 206 235
135 206 235
135 206 235
135 206 235
135 206 235
135 206 235
135 206 235
135 206 235
135 206 235
135 206 235
135 206 235
135 206 235
135 206 235
135 206 235
135 206 235
135 206 235
135 206 235
135 206 235
135 206 235
135 206 235
135 206 235
40 40 40
40 40 40
40 40 40
40 40 40
40 40 40
40 40 40
40 40 40
40 40 40
40 40 40
40 40 40
40 40 40
40 40 40
40 40 40
40 40 40
40 40 40
40 40 40
40 40 40
135 206 235
135 206 235
135 206 235
135 206 235
135 206 235
135 206 235
135 206 235
135 206 235
135 206 235
135 206 235
135 206 235
135 206 235
135 206 235
135 206 235
135 206 235
135 206 235
135 206 235
135 206 235
135 206 235
135 206 235
135 206 235
135 206 235
135 206 235
135 206 235
135 206 235
135 206 235
135 206 235
135 206 235
135 206 235
135 206 235
135 206 235
135 206 235
135 206 235
135 206 235
135 206 235
135 206 235
135 206 235
135 206 235
135 206 235
135 206 235
135 206 235
135 206 235
135 206 235
135 206 235
135 206 235
135 206 235
135 206 235
135 206 235
135 206 235
135 206 235
135 206 235
135 206 235
135 206 235
135 206 235
135 206 235
135 206 235
135 206 235
135 206 235
135 206 235
135 206 235
135 206 235
135 206 235
135 206 235
135 206 235
40 40 40
40 40 40
40 40 40
40 40 40
40 40 40
40 40 40
40 40 40
40 40 40
40 40 40
40 40 40
40 40 40
40 40 40
40 40 40
40 40 40
40 40 40
135 206 235
135 206 235
135 206 235
135 206 235
135 206 235
135 206 235
135 206 235
135 206 235
135 206 235
135 206 235
135 206 235
135 206 235
135 206 235
135 206 235
135 206 235
135 206 235
135 206 235
135 206 235
135 206 235
135 206 235
135 206 235
135 206 235
135 206 235
135 206 235
135 206 235
135 206 235
135 206 235
135 206 235
135 206 235
135 206 235
135 206 235
135 206 235
135 206 235
135 206 235
135 206 235
135 206 235
135 206 235
135 206 235
135 206 235
135 206 235
135 206 235
135 206 235
135 206 235
135 206 235
135 206 235
135 206 235
135 206 235
135 206 235
135 206 235
135 206 235
135 206 235
135 206 235
135 206 235
135 206 235
135 206 235
135 206 235
135 206 235
135 206 235
135 206 235
135 206 235
135 206 235
135 206 235
135 206 235
135 206 235
135 206 235
135 206 235
40 40 40
40 40 40
40 40 40
40 40 40
40 40 40
40 40 40
40 40 40
40 40 40
40 40 40
40 40 40
40 40 40
40 40 40
40 40 40
135 206 235
135 206 235
135 206 235
135 206 235
135 206 235
135 206 235
135 206 235
135 206 235
135 206 235
135 206 235
135 206 235
135 206 235
135 206 235
135 206 235
135 206 235
135 206 235
135 206 235
135 206 235
135 206 235
135 206 235
135 206 235
135 206 235
135 206 235
135 206 235
135 206 235
135 206 235
135 206 235
135 206 235
135 206 235
135 206 235
135 206 235
135 206 235
135 206 235
135 206 235
135 206 235
135 206 235
135 206 235
135 206 235
135 206 235
135 206 235
135 206 235
135 206 235
135 206 235
135 206 235
135 206 235
135 206 235
135 206 235
135 206 235
135 206 235
135 206 235
135 206 235
135 206 235
135 206 235
135 206 235
135 206 235
135 206 235
135 206 235
135 206 235
135 206 235
135 206 235
135 206 235
135 206 235
135 206 235
135 206 235
135 206 235
135 206 235
135 206 235
135 206 235
40 40 40
40 40 40
40 40 40
40 40 40
40 40 40
40 40 40
40 40 40
40 40 40
40 40 40
40 40 40
40 40 40
135 206 235
135 206 235
135 206 235
135 206 235
135 206 235
135 206 235
135 206 235
135 206 235
135 206 235
135 206 235
135 206 235
135 206 235
135 206 235
135 206 235
135 206 235
135 206 235
135 206 235
135 206 235
135 206 235
135 206 235
135 206 235
135 206 235
135 206 235
135 206 235
135 206 235
135 206 235
135 206 235
135 206 235
135 206 235
135 206 235
135 206 235
135 206 235
135 206 235
135 206 235
135 206 235
135 206 235
135 206 235
135 206 235
135 206 235
135 206 235
135 206 235
135 206 235
135 206 235
135 206 235
135 206 235
135 206 235
135 206 235
135 206 235
135 206 235
135 206 235
135 206 235
135 206 235
135 206 235
135 206 235
135 206 235
135 206 235
135 206 235
135 206 235
135 206 235
135 206 235
135 206 235
135 206 235
135 206 235
135 206 235
135 206 235
135 206 235
135 206 235
135 206 235
135 206 235
135 206 235
40 40 40
40 40 40
40 40 40
40 40 40
40 40 40
40 40 40
40 40 40
40 40 40
40 40 40
135 206 235
135 206 235
135 206 235
135 206 235
135 206 235
135 206 235
135 206 235
135 206 235
135 206 235
135 206 235
135 206 235
135 206 235
135 206 235
135 206 235
135 206 235
135 206 235
135 206 235
135 206 235
135 206 235
135 206 235
135 206 235
135 206 235
135 206 235
135 206 235
135 206 235
135 206 235
135 206 235
135 206 235
135 206 235
135 206 235
135 206 235
135 206 235
135 206 235
135 206 235
135 206 235
135 206 235
135 206 235
135 206 235
135 206 235
135 206 235
135 206 235
135 206 235
135 206 235
135 206 235
135 206 235
135 206 235
135 206 235
135 206 235
135 206 235
135 206 235
135 206 235
135 206 235
135 206 235
135 206 235
135 206 235
135 206 235
135 206 235
135 206 235
135 206 235
135 206 235
135 206 235
135 206 235
135 206 235
135 206 235
135 206 235
135 206 235
135 206 235
135 206 235
135 206 235
135 206 235
135 206 235
135 206 235
40 40 40
40 40 40
40 40 40
40 40 40
40 40 40
40 40 40
40 40 40
135 206 235
135 206 235
135 206 235
135 206 235
135 206 235
135 206 235
135 206 235
135 206 235
135 206 235
135 206 235
135 206 235
135 206 235
135 206 235
135 206 235
135 206 235
135 206 235
135 206 235
135 206 235
135 206 235
135 206 235
135 206 235
135 206 235
135 206 235
135 206 235
135 206 235
135 206 235
135 206 235
135 206 235
135 206 235
135 206 235
135 206 235
135 206 235
135 206 235
135 206 235
135 206 235
135 206 235
135 206 235
135 206 235
135 206 235
135 206 235
135 206 235
135 206 235
135 206 235
135 206 235
135 206 235
135 206 235
135 206 235
135 206 235
135 206 235
135 206 235
135 206 235
135 206 235
135 206 235
135 206 235
135 206 235
135 206 235
135 206 235
135 206 235
135 206 235
135 206 235
135 206 235
135 206 235
135 206 235
135 206 235
135 206 235
135 206 235
135 206 235
135 206 235
135 206 235
135 206 235
135 206 235
135 206 235
135 206 235
135 206 235
40 40 40
40 40 40
40 40 40
40 40 40
40 40 40
135 206 235
135 206 235
135 206 235
135 206 235
135 206 235
135 206 235
135 206 235
135 206 235
135 206 235
135 206 235
135 206 235
135 206 235
135 206 235
135 206 235
135 206 235
135 206 235
135 206 235
135 206 235
135 206 235
135 206 235
135 206 235
135 206 235
135 206 235
135 206 235
135 206 235
135 206 235
135 206 235
135 206 235
135 206 235
135 206 235
135 206 235
135 206 235
135 206 235
135 206 235
135 206 235
135 206 235
135 206 235
135 206 235
135 206 235
135 206 235
135 206 235
135 206 235
135 206 235
135 206 235
135 206 235
135 206 235
135 206 235
135 206 235
135 206 235
135 206 235
135 206 235
135 206 235
135 206 235
135 206 235
135 206 235
135 206 235
135 206 235
135 206 235
135 206 235
135 206 235
135 206 235
135 206 235
135 206 235
135 206 235
135 206 235
135 206 235
135 206 235
135 206 235
135 206 235
135 206 235
135 206 235
135 206 235
135 206 235
135 206 235
135 206 235
135 206 235
40 40 40
40 40 40
40 40 40
135 206 235
135 206 235
135 206 235
135 206 235
135 206 235
135 206 235
135 206 235
135 206 235
135 206 235
135 206 235
135 206 235
135 206 235
135 206 235
135 206 235
135 206 235
135 206 235
135 206 235
135 206 235
135 206 235
135 206 235
135 206 235
135 206 235
135 206 235
135 206 235
135 206 235
135 206 235
135 206 235
135 206 235
135 206 235
135 206 235
135 206 235
135 206 235
135 206 235
135 206 235
135 206 235
135 206 235
135 206 235
135 206 235
135 206 235
135 206 235
135 206 235
135 206 235
135 206 235
135 206 235
135 206 235
135 206 235
135 206 235
135 206 235
135 206 235
135 206 235
135 206 235
135 206 235
135 206 235
135 206 235
135 206 235
135 206 235
135 206 235
135 206 235
135 206 235
135 206 235
135 206 235
135 206 235
135 206 235
135 206 235
135 206 235
135 206 235
135 206 235
135 206 235
135 206 235
135 206 235
135 206 235
135 206 235
135 206 235
135 206 235
135 206 235
135 206 235
135 206 235
135 206 235
40 40 40
135 206 235
135 206 235
135 206 235
135 206 235
135 206 235
135 206 235
135 206 235
135 206 235
135 206 235
135 206 235
135 206 235
135 206 235
135 206 235
135 206 235
135 206 235
135 206 235
135 206 235
135 206 235
135 206 235
135 206 235
135 206 235
135 206 235
135 206 235
135 206 235
135 206 235
135 206 235
135 206 235
135 206 235
135 206 235
135 206 235
135 206 235
135 206 235
135 206 235
135 206 235
135 206 235
135 206 235
135 206 235
135 206 235
135 206 235
135 206 235
135 206 235
135 206 235
135 206 235
135 206 235
135 206 235
135 206 235
135 206 235
135 206 235
135 206 235
135 206 235
135 206 235
135 206 235
135 206 235
135 206 235
135 206 235
135 206 235
135 206 235
135 206 235
135 206 235
135 206 235
135 206 235
135 206 235
135 206 235
135 206 235
135 206 235
135 206 235
135 206 235
135 206 235
135 206 235
135 206 235
135 206 235
135 206 235
135 206 235
135 206 235
135 206 235
135 206 235
135 206 235
135 206 235
135 206 235
135 206 235
135 206 235
135 206 235
135 206 235
135 206 235
135 206 235
135 206 235
135 206 235
135 206 235
135 206 235
135 206 235
135 206 235
135 206 235
135 206 235
135 206 235
135 206 235
135 206 235
135 206 235
135 206 235
135 206 235
135 206 235
135 206 235
135 206 235
135 206 235
135 206 235
135 206 235
135 206 235
135 206 235
135 206 235
135 206 235
135 206 235
135 206 235
135 206 235
135 206 235
135 206 235
135 206 235
135 206 235
135 206 235
135 206 235
135 206 235
135 206 235
135 206 235
135 206 235
135 206 235
135 206 235
135 206 235
135 206 235
135 206 235
135 206 235
135 206 235
135 206 235
135 206 235
135 206 235
135 206 235
135 206 235
135 206 235
135 206 235
135 206 235
135 206 235
135 206 235
135 206 235
135 206 235
135 206 235
135 206 235
135 206 235
135 206 235
135 206 235
135 206 235
135 206 235
135 206 235
135 206 235
135 206 235
135 206 235
135 206 235
135 206 235
135 206 235
135 206 235
135 206 235
135 206 235
135 206 235
135 206 235
135 206 235
135 206 235
135 206 235
135 206 235
135 206 235
135 206 235
135 206 235
135 206 235
135 206 235
135 206 235
135 206 235
135 206 235
135 206 235
135 206 235
135 206 235
135 206 235
135 206 235
135 206 235
135 206 235
135 206 235
135 206 235
135 206 235
135 206 235
135 206 235
135 206 235
135 206 235
135 206 235
135 206 235
135 206 235
135 206 235
135 206 235
135 206 235
135 206 235
135 206 235
135 206 235
135 206 235
135 206 235
135 206 235
135 206 235
135 206 235
135 206 235
135 206 235
135 206 235
135 206 235
135 206 235
135 206 235
135 206 235
135 206 235
135 206 235
135 206 235
135 206 235
135 206 235
135 206 235
135 206 235
135 206 235
135 206 235
135 206 235
135 206 235
135 206 235
135 206 235
135 206 235
135 206 235
135 206 235
135 206 235
135 206 235
135 206 235
135 206 235
135 206 235
135 206 235
135 206 235
135 206 235
135 206 235
135 206 235
135 206 235
135 206 235
135 206 235
135 206 235
135 206 235
135 206 235
135 206 235
135 206 235
135 206 235
135 206 235
135 206 235
135 206 235
135 206 235
135 206 235
135 206 235
135 206 235
135 206 235
135 206 235
135 206 235
135 206 235
135 206 235
135 206 235
135 206 235
135 206 235
135 206 235
135 206 235
135 206 235
135 206 235
135 206 235
135 206 235
135 206 235
135 206 235
135 206 235
135 206 235
135 206 235
135 206 235
135 206 235
135 206 235
135 206 235
135 206 235
135 206 235
135 206 235
135 206 235
135 206 235
135 206 235
135 206 235
135 206 235
135 206 235
135 206 235
135 206 235
135 206 235
135 206 235
135 206 235
135 206 235
135 206 235
135 206 235
135 206 235
135 206 235
135 206 235
135 206 235
135 206 235
135 206 235
135 206 235
135 206 235
135 206 235
135 206 235
135 206 235
135 206 235
135 206 235
135 206 235
135 206 235
135 206 235
135 206 235
135 206 235
135 206 235
135 206 235
135 206 235
135 206 235
135 206 235
135 206 235
135 206 235
135 206 235
135 206 235
135 206 235
135 206 235
135 206 235
135 206 235
135 206 235
135 206 235
135 206 235
135 206 235
135 206 235
135 206 235
135 206 235
135 206 235
135 206 235
135 206 235
135 206 235
135 206 235
135 206 235
135 206 235
135 206 235
135 206 235
135 206 235
135 206 235
135 206 235
135 206 235
135 206 235
135 206 235
135 206 235
135 206 235
135 206 235
135 206 235
135 206 235
135 206 235
135 206 235
135 206 235
135 206 235
135 206 235
135 206 235
135 206 235
135 206 235
135 206 235
135 206 235
135 206 235
135 206 235
135 206 235
135 206 235
135 206 235
135 206 235
135 206 235
135 206 235
135 206 235
135 206 235
135 206 235
135 206 235
135 206 235
135 206 235
135 206 235
135 206 235
135 206 235
135 206 235
135 206 235
135 206 235
135 206 235
135 206 235
135 206 235
135 206 235
135 206 235
135 206 235
135 206 235
135 206 235
135 206 235
135 206 235
135 206 235
135 206 235
135 206 235
135 206 235
135 206 235
135 206 235
135 206 235
135 206 235
135 206 235
135 206 235
135 206 235
135 206 235
135 206 235
135 206 235
135 206 235
135 206 235
135 206 235
135 206 235
135 206 235
135 206 235
135 206 235
135 206 235
135 206 235
135 206 235
135 206 235
135 206 235
135 206 235
135 206 235
135 206 235
135 206 235
135 206 235
135 206 235
135 206 235
135 206 235
135 206 235
135 206 235
135 206 235
135 206 235
135 206 235
135 206 235
135 206 235
135 206 235
135 206 235
135 206 235
135 206 235
135 206 235
135 206 235
135 206 235
135 206 235
135 206 235
135 206 235
135 206 235
135 206 235
135 206 235
135 206 235
135 206 235
135 206 235
135 206 235
135 206 235
135 206 235
135 206 235
135 206 235
135 206 235
135 206 235
135 206 235
135 206 235
135 206 235
135 206 235
135 206 235
135 206 235
135 206 235
135 206 235
135 206 235
135 206 235
135 206 235
135 206 235
135 206 235
135 206 235
135 206 235
135 206 235
135 206 235
135 206 235
135 206 235
135 206 235
135 206 235
135 206 235
135 206 235
135 206 235
135 206 235
135 206 235
135 206 235
135 206 235
135 206 235
135 206 235
135 206 235
135 206 235
135 206 235
135 206 235
135 206 235
135 206 235
135 206 235
135 206 235
135 206 235
135 206 235
135 206 235
135 206 235
135 206 235
135 206 235
135 206 235
135 206 235
135 206 235
135 206 235
135 206 235
135 206 235
135 206 235
135 206 235
135 206 235
135 206 235
135 206 235
135 206 235
135 206 235
135 206 235
135 206 235
135 206 235
135 206 235
135 206 235
135 206 235
135 206 235
135 206 235
135 206 235
135 206 235
135 206 235
135 206 235
135 206 235
135 206 235
135 206 235
135 206 235
135 206 235
135 206 235
135 206 235
135 206 235
135 206 235
135 206 235
135 206 235
135 206 235
135 206 235
135 206 235
135 206 235
135 206 235
135 206 235
135 206 235
135 206 235
135 206 235
135 206 235
135 206 235
135 206 235
135 206 235
135 206 235
135 206 235
135 206 235
135 206 235
135 206 235
135 206 235
135 206 235
135 206 235
135 206 235
135 206 235
135 206 235
135 206 235
135 206 235
135 206 235
135 206 235
135 206 235
135 206 235
135 206 235
135 206 235
135 206 235
135 206 235
135 206 235
135 206 235
135 206 235
135 206 235
135 206 235
135 206 235
135 206 235
135 206 235
135 206 235
135 206 235
135 206 235
135 206 235
135 206 235
135 206 235
135 206 235
135 206 235
135 206 235
135 206 235
135 206 235
135 206 235
135 206 235
135 206 235
135 206 235
135 206 235
135 206 235
135 206 235
135 206 235
135 206 235
135 206 235
135 206 235
135 206 235
135 206 235
135 206 235
135 206 235
135 206 235
135 206 235
135 206 235
135 206 235
135 206 235
135 206 235
135 206 235
135 206 235
135 206 235
135 206 235
135 206 235
135 206 235
135 206 235
135 206 235
135 206 235
135 206 235
135 206 235
135 206 235
135 206 235
135 206 235
135 206 235
135 206 235
135 206 235
135 206 235
135 206 235
135 206 235
135 206 235
135 206 235
135 206 235
135 206 235
135 206 235
135 206 235
135 206 235
135 206 235
135 206 235
135 206 235
135 206 235
135 206 235
135 206 235
135 206 235
135 206 235
135 206 235
135 206 235
135 206 235
135 206 235
135 206 235
135 206 235
135 206 235
135 206 235
135 206 235
135 206 235
135 206 235
135 206 235
135 206 235
135 206 235
135 206 235
135 206 235
135 206 235
135 206 235
135 206 235
135 206 235
135 206 235
135 206 235
135 206 235
135 206 235
135 206 235
135 206 235
135 206 235
135 206 235
135 206 235
135 206 235
135 206 235
135 206 235
135 206 235
135 206 235
135 206 235
135 206 235
135 206 235
135 206 235
135 206 235
135 206 235
135 206 235
135 206 235
135 206 235
135 206 235
135 206 235
135 206 235
135 206 235
135 206 235
135 206 235
135 206 235
135 206 235
135 206 235
135 206 235
135 206 235
135 206 235
135 206 235
135 206 235
135 206 235
135 206 235
135 206 235
135 206 235
135 206 235
135 206 235
135 206 235
135 206 235
135 206 235
135 206 235
135 206 235
135 206 235
135 206 235
135 206 235
135 206 235
135 206 235
135 206 235
135 206 235
135 206 235
135 206 235
135 206 235
135 206 235
135 206 235
135 206 235
135 206 235
135 206 235
135 206 235
135 206 235
135 206 235
135 206 235
135 206 235
135 206 235
135 206 235
135 206 235
135 206 235
135 206 235
135 206 235
135 206 235
135 206 235
135 206 235
135 206 235
135 206 235
135 206 235
135 206 235
135 206 235
135 206 235
135 206 235
135 206 235
135 206 235
135 206 235
135 206 235
135 206 235
135 206 235
135 206 235
135 206 235
135 206 235
135 206 235
135 206 235
135 206 235
135 206 235
135 206 235
135 206 235
135 206 235
135 206 235
135 206 235
135 206 235
135 206 235
135 206 235
135 206 235
135 206 235
135 206 235
135 206 235
135 206 235
135 206 235
135 206 235
135 206 235
135 206 235
135 206 235
135 206 235
135 206 235
135 206 235
135 206 235
135 206 235
135 206 235
135 206 235
135 206 235
135 206 235
135 206 235
135 206 235
135 206 235
135 206 235
135 206 235
135 206 235
135 206 235
135 206 235
135 206 235
135 206 235
135 206 235
135 206 235
135 206 235
135 206 235
135 206 235
135 206 235
135 206 235
135 206 235
135 206 235
135 206 235
135 206 235
135 206 235
135 206 235
135 206 235
135 206 235
135 206 235
135 206 235
135 206 235
135 206 235
135 206 235
135 206 235
135 206 235
135 206 235
135 206 235
135 206 235
135 206 235
135 206 235
135 206 235
135 206 235
135 206 235
135 206 235
135 206 235
135 206 235
135 206 235
135 206 235
135 206 235
135 206 235
135 206 235
135 206 235
135 206 235
135 206 235
135 206 235
135 206 235
135 206 235
135 206 235
